X:85
T:Sean Ryan's
M:6/8
C:Sean Ryan
S:THSP
R:jig
Z:
K:Ador
"Am"cBA BAG|AGE DB,G,|~A,3 ~E3|"G"DEG A2B|
"Am"cBA BAG|AGE DB,G,|~A,3 EGE|"G"DB,G, "Am"A,2B:|:
"Am"cBA ~a3|bag edB|"G"GBd ~g3|GBd cBA|
"C"~c3 "G"dcd|"Am"ede "G"gab|"Am"age dBG|"G"EFG "Am"A2B:||
